icons/op-training-consulting-24.svg

<svg width="24" height="24" viewBox="0 0 24 24" fill="none" xmlns="http://www.w3.org/2000/svg">
<path d="M4 6V18H20V6H4ZM8.52652 17.5L5 15.5C5.0943 15.4062 5.00589 15.625 5.00589 15.125V7H18.9941V17H12.6444V17.5H8.52652ZM12.5501 15.5C12.2672 15.125 11.4499 14.9062 10.6326 14.5C9.84676 14.2188 9.62672 14 9.62672 14V13.2188C9.62672 13.2188 9.94106 13 10.0354 12.2188C10.1297 12.3125 10.3497 12 10.3497 11.8125C10.3497 11.625 10.3497 11.125 10.0354 11.2188C10.0354 10.8125 10.1297 10.5 10.1297 10.3125C10.1297 9.625 9.43811 9 8.52652 9C7.52063 9 6.92338 9.71875 6.82908 10.3125C6.82908 10.5 6.82908 10.8125 6.92338 11.2188C6.60904 11.125 6.60904 11.625 6.60904 11.8125C6.60904 12 6.82908 12.3125 7.01768 12.3125C7.11198 13.125 7.42633 13.3125 7.42633 13.3125V14.125L6.42043 14.625C5.91749 14.8125 5.41454 15 5.00589 15.2188C4.81729 15.3125 4.59725 15.4062 4.50295 15.625C4.31434 16 4.31434 17.625 4.31434 17.625H12.7701V17.125C12.6444 16.5 12.6444 15.7188 12.5501 15.5ZM12.8644 12.5L11.9528 13.5L13.3674 12.8125C13.6503 12.9062 13.9646 13 14.279 13H15.8821C17.2967 13 18.3969 11.9062 18.3969 10.5C18.3969 9.125 17.2967 8 15.8821 8H14.279C12.8644 8 11.7642 9.125 11.7642 10.5C11.7642 11.3125 12.1415 12.125 12.8644 12.5ZM14.279 8.40625H15.8821C16.9823 8.40625 17.8939 9.3125 17.8939 10.4062C17.8939 11.5 16.9823 12.4062 15.8821 12.4062H14.279C13.1473 12.4062 12.2672 11.5 12.2672 10.4062C12.2672 9.3125 13.1473 8.40625 14.279 8.40625ZM13.4617 9.625H16.5737V9.90625H13.4617V9.625ZM13.4617 10.3125H16.5737V10.625H13.4617V10.3125ZM13.4617 10.9062H16.5737V11.2188H13.4617V10.9062Z" fill="black"/>
</svg>

<svg xmlns="http://www.w3.org/2000/svg" width="24" height="24" viewBox="0 0 24 24"><path d="M4 6v12h16V6H4Zm4.527 11.5L5 15.5c.094-.094.006.125.006-.375V7h13.988v10h-6.35v.5H8.527Zm4.023-2c-.283-.375-1.1-.594-1.917-1-.786-.281-1.006-.5-1.006-.5v-.781s.314-.219.408-1c.095.093.315-.219.315-.407 0-.187 0-.687-.315-.593 0-.407.095-.719.095-.907C10.13 9.625 9.438 9 8.527 9c-1.006 0-1.604.719-1.698 1.312 0 .188 0 .5.094.907-.314-.094-.314.406-.314.593 0 .188.22.5.409.5.094.813.408 1 .408 1v.813l-1.006.5c-.503.187-1.005.375-1.414.594-.189.093-.409.187-.503.406-.189.375-.189 2-.189 2h8.456v-.5c-.126-.625-.126-1.406-.22-1.625Zm.314-3-.911 1 1.414-.688c.283.094.598.188.912.188h1.603c1.415 0 2.515-1.094 2.515-2.5 0-1.375-1.1-2.5-2.515-2.5h-1.603a2.495 2.495 0 0 0-2.515 2.5c0 .812.378 1.625 1.1 2Zm1.415-4.094h1.603c1.1 0 2.012.906 2.012 2 0 1.094-.912 2-2.012 2h-1.603a2 2 0 1 1 0-4Zm-.817 1.219h3.112v.281h-3.112v-.281Zm0 .687h3.112v.313h-3.112v-.313Zm0 .594h3.112v.313h-3.112v-.313Z"/></svg>
